X:1
M:6/8
K:G
|:Edc B2A|EDE FED|EGA AFD|EDE DED|
EGA FEE|DED EFE|GBA AFE|1 AGE G2 :|2 AGE D2G||
|:DEG Ade|gfg efe|fed cBA|G2A GED|
DDE AEB|BGA ded|efe dBA|AAG AFE|
AFA Adc|dcd BAF|Adc BGD|
DFA ded|ded gfd|Bcd gfe|faf fdB|
cdf edB|ddd f2e|cdA AFD|DFD D2:|
